markets/1INCH.svg

<svg width="42" height="42" viewBox="0 0 42 42" fill="none" xmlns="http://www.w3.org/2000/svg">
<circle cx="21" cy="21" r="21" fill="#06061B"/>
<path d="M20.9727 38.1185C30.0343 38.1185 37.3801 30.7725 37.3801 21.711C37.3801 12.6494 30.0343 5.30347 20.9727 5.30347C11.911 5.30347 4.56519 12.6494 4.56519 21.711C4.56519 30.7725 11.911 38.1185 20.9727 38.1185Z" fill="#ECF3FF"/>
<path d="M16.5427 11.7035L10.8 9.40645V10.2268L15.7223 14.6568L15.3942 19.2509L13.9175 25.4858L11.9486 28.2751L12.4408 32.2128L14.9019 32.541L16.8708 32.2128L18.8397 32.541L22.2853 30.408L22.9416 26.9625L27.0435 23.0246L28.8483 24.3372L30.6531 26.9625V32.2128L33.1142 31.5565L35.5753 26.1421L36.2316 19.2509L27.3716 6.28902L25.8949 5.96088L16.5427 11.7035Z" fill="white"/>
<path d="M7.84661 21.1859C7.91224 20.6281 7.94505 20.0702 8.10913 19.5452C8.56854 17.3794 9.45454 15.3121 10.7672 13.6385C10.9969 13.3432 11.1938 13.0806 11.4562 12.8181L9.9796 11.4399C9.71706 11.8337 9.45454 12.2274 9.22483 12.6213C8.01068 14.7214 7.35438 17.084 7.19031 19.414C7.12468 20.0046 7.15749 20.5953 7.15749 21.1531C7.15749 21.7438 7.22312 22.3017 7.32157 22.8923C7.48565 24.0409 7.78098 25.1565 8.17476 26.2066C7.91224 25.0909 7.78098 23.9752 7.74816 22.8267C7.74816 22.3017 7.74816 21.7438 7.84661 21.1859Z" fill="#94A6C4"/>
<path d="M14.5738 10.555C13.7534 10.1612 12.6049 9.63617 11.7845 9.24239C12.5393 8.52046 13.9175 7.76572 15.066 7.2735C14.2457 7.92979 14.2457 9.30802 14.5738 10.555Z" fill="#94A6C4"/>
<path d="M11.2594 16.1324C10.8 17.2809 10.5047 18.4951 10.4063 19.6764C10.3734 19.9717 10.3407 20.2671 10.3734 20.5625C10.3734 20.8578 10.3734 21.1531 10.4063 21.4484L10.4391 21.9078C10.4391 22.0391 10.4719 22.2032 10.5047 22.3344L10.636 23.2204L10.6688 22.3344C10.6688 22.2032 10.6688 22.0391 10.7016 21.9078L10.7673 21.4812C10.8 21.1859 10.8657 20.8906 10.8985 20.6281C10.9313 20.3327 11.0297 20.0702 11.0954 19.8077C11.3907 18.692 11.8829 17.6747 12.4736 16.7231C12.8674 16.0996 13.3268 15.5417 13.819 15.0167L12.5392 13.8026C11.9814 14.5573 11.5876 15.312 11.2594 16.1324Z" fill="#94A6C4"/>
<path d="M30.2593 10.521C28.5201 9.89756 27.831 10.0944 27.831 10.0944C27.831 10.0944 26.7481 13.015 22.6134 13.2119C22.6462 13.2446 26.3543 15.4104 30.2593 10.521Z" fill="#94A6C4"/>
<path d="M31.4407 16.3293C31.2766 19.9389 28.4873 21.2844 26.3215 21.0218C25.1402 20.8578 23.401 21.4156 23.401 21.4156L21.2024 25.2221L20.4804 25.4847L21.7274 23.1876C21.7274 23.1876 18.774 24.2705 18.5443 24.369C18.3147 24.4674 17.3958 25.8129 16.6411 27.2239C16.477 26.2394 15.8535 25.5503 15.8535 25.5175C15.8535 25.6816 16.1817 28.6349 15.8208 29.4553C15.4598 30.3085 13.8518 30.8664 13.8518 30.8664L16.2145 31.7523L16.3786 31.818L18.1506 30.1444L18.8069 27.6505L19.6272 27.0598C19.6272 27.0598 21.6618 26.8301 21.3664 28.6677C21.2352 29.5537 20.2508 29.4881 19.135 30.1772C18.4787 30.571 17.6256 31.1945 17.199 31.6211L18.3803 32.4743C18.3803 32.4743 19.7914 32.2446 21.793 30.6695C23.8275 29.0287 22.8103 27.2567 22.8103 27.2567L26.1246 23.2861L28.2904 23.4502C28.2904 23.4502 32.0313 24.4018 33.2455 27.9458C35.6738 21.1531 31.7688 16.6575 31.4407 16.3293Z" fill="#94A6C4"/>
<path d="M35.2472 13.5083C35.8379 13.7709 36.2972 14.1635 36.7238 14.5245C33.7705 4.2862 24.1886 5.43472 23.9917 5.50035C24.2214 5.13939 25.0746 4.58153 25.8621 4.2862C25.8621 4.2862 21.793 2.84234 18.085 5.4019C18.1506 4.81124 18.8725 3.92523 18.8725 3.92523C13.7534 6.12499 13.4252 8.75018 14.4097 10.3241C13.5893 9.93037 12.7689 9.56941 11.9486 9.17563C9.4218 7.96147 7.25602 6.94421 7.12476 6.9114C6.89505 6.84576 6.7966 6.94421 6.7966 6.94421C6.7966 6.94421 6.69816 7.04266 6.89505 7.23954C9.88121 10.2257 11.7845 12.0317 14.9675 14.9511C14.4425 16.1324 14.3769 16.7231 14.6394 17.3465C15.0003 18.1997 14.9675 18.6263 14.8363 19.1842C14.6722 19.742 13.3596 24.6971 13.1299 25.255C12.9002 25.8456 11.161 27.8145 11.1282 28.4708C11.0954 29.1271 11.6204 32.0148 12.3423 32.4414C12.9002 32.7367 14.2456 33.3603 15.23 33.4915C15.5582 33.5572 15.8864 33.5243 16.0504 33.3931C16.7067 32.9665 16.8708 32.9009 17.2974 32.9337L17.3958 32.9665C17.5599 32.9993 17.7568 33.0649 18.0193 33.0977C18.5772 33.1633 19.2991 33.1633 19.8898 32.7696C20.743 32.1133 22.1868 31.2929 22.6791 30.8663C23.2697 30.2756 23.6635 29.4553 23.6635 28.5364C23.6635 27.7161 24.2214 27.0598 24.8449 26.4035C25.4355 25.8128 26.9122 24.3689 27.5028 23.7455C29.0123 24.2705 29.5702 26.4363 29.5702 27.6177C29.5702 30.8991 26.9122 35.6901 20.8086 36.0511C20.5789 36.0511 20.3492 36.0839 20.0867 36.0839C12.1455 36.0839 5.64808 29.0615 5.64808 20.8249C5.64808 14.3275 9.552 9.92779 9.58482 9.89497C6.43457 12.8812 4.56519 17.0512 4.56519 21.711C4.56519 30.7679 11.9158 38.1196 20.9727 38.1196C30.0296 38.1196 37.3801 30.7679 37.3801 21.711C37.3801 18.7576 36.6254 15.9039 35.2472 13.5083ZM12.8345 11.407C12.3752 11.0132 11.9158 10.6195 11.4563 10.2257C12.0798 10.5539 12.7033 10.882 13.2611 11.1774C14.9675 12.0633 16.3786 12.8509 16.6411 13.0478C16.6411 13.0478 16.6739 13.0806 16.7067 13.1135C16.8708 13.3103 17.0348 13.6385 16.7395 14.0651C16.5755 14.2948 16.3786 14.2291 16.0832 14.0322C15.8207 13.8682 14.4097 12.7525 12.8345 11.407ZM22.3838 28.4708C22.3838 29.0287 22.1212 29.5209 21.793 29.8819C21.629 30.0459 20.9727 30.4725 20.5133 30.7679C20.0538 31.096 19.5616 31.3914 19.1678 31.6867C19.0038 31.7851 18.7412 31.8508 18.3146 31.7851L17.2974 31.6539C17.9209 31.0304 19.6272 29.685 20.1851 29.4225C20.8414 29.0943 21.2352 28.7334 20.9399 27.9786C20.6773 27.1911 19.6601 27.2239 19.6601 27.2239C19.6601 27.2239 20.2835 27.0598 20.7758 27.1254C20.1523 26.8629 19.2991 26.9285 18.8725 27.2239C18.4131 27.552 18.2819 28.8974 17.9865 29.7178C17.6912 30.571 17.0348 30.9319 16.0504 31.6211C15.4926 31.982 15.1316 32.0805 14.8691 32.0477C14.3113 31.8836 13.655 31.5882 13.1955 31.3585C12.933 30.8663 12.6048 29.324 12.5721 28.7005C12.7033 28.3724 13.2284 27.7161 13.4908 27.3223C14.0159 26.6003 14.3113 26.1737 14.4425 25.78C14.6722 25.2221 15.6238 21.711 15.9848 20.2343C16.3458 20.8578 16.838 21.9078 16.6083 22.4985C17.7896 21.2515 17.2646 19.7749 17.0021 19.1842C16.7724 18.5935 16.5098 17.445 17.0348 16.3293C17.5271 15.2136 19.2335 12.1946 19.2335 12.1946C19.2335 12.1946 19.5288 12.9822 20.1523 12.9165C20.743 12.8509 26.4199 6.4848 26.4199 6.4848C26.4199 6.4848 27.306 9.43815 25.6652 11.243C24.0244 13.0478 22.6462 13.2447 22.6462 13.2447C22.6462 13.2447 24.4839 13.8354 26.3871 12.8509C26.8794 14.6229 27.306 16.4606 27.306 16.6902C27.1747 16.9199 25.337 20.0046 25.173 20.2015C25.1073 20.2671 24.5823 20.3327 24.2541 20.3327C23.6635 20.4312 23.3025 20.4639 23.1385 20.5624C22.8759 20.7265 21.3664 23.5814 20.6445 24.9596C19.9882 25.0581 19.3319 25.2878 18.8069 25.9113C19.0694 25.78 19.8241 25.78 20.382 25.78C20.8743 25.8128 22.2196 26.7973 22.3838 28.3395C22.3838 28.438 22.3838 28.438 22.3838 28.4708ZM18.5443 29.849C18.9053 29.4553 18.9709 28.7005 19.0366 28.4708C19.1022 28.2411 19.2335 27.8145 19.5288 27.7817C19.8241 27.7489 20.4477 27.9458 20.382 28.438C20.3164 28.8974 19.8241 28.9303 19.4304 29.16C19.1678 29.324 18.61 29.7834 18.5443 29.849ZM32.8189 30.2756C32.4251 26.0753 29.5374 24.1064 28.2576 23.4502C29.7342 23.286 33.5408 22.1376 31.4407 16.3293C31.5063 16.5918 32.0969 19.4795 30.4234 20.989C28.717 22.5313 26.2231 21.875 25.9278 21.875C25.6652 21.8422 24.4183 23.0563 22.7119 25.3862C22.5478 25.2878 21.8587 25.0253 21.0055 25.0581C21.8587 23.4502 23.1385 21.1531 23.3354 20.9562C23.401 20.8905 23.9588 20.8249 24.287 20.7921C24.9433 20.7265 25.2715 20.6609 25.4027 20.5296C25.4683 20.4312 25.9278 19.7092 26.3871 18.9217C26.6825 18.9545 27.47 19.0201 27.5685 18.9873C27.6341 18.9217 28.5201 17.3465 28.5529 17.1496C28.5857 17.0184 27.9623 14.5573 27.5685 12.9822C35.6738 16.8215 36.9535 25.2878 32.8189 30.2756Z" fill="#1C324F"/>
<path d="M25.009 10.7507C25.9278 9.93033 25.7965 8.51929 25.7965 8.51929L23.0401 11.5711C23.0072 11.5711 23.8605 11.7351 25.009 10.7507Z" fill="#1C324F"/>
<path d="M14.705 28.1098L15.1645 26.7972C15.1645 26.7972 13.7534 28.6021 13.6221 28.8646C13.4908 29.1599 13.5565 29.7178 14.0159 29.7506C14.4753 29.7834 15.0988 29.1927 15.1645 28.7333C15.2629 28.1098 14.705 28.1098 14.705 28.1098Z" fill="#1C324F"/>
<path d="M19.0366 20.1687C20.0211 20.0702 21.7931 19.2827 22.5478 18.6592C23.3025 18.0029 23.1713 16.559 21.99 16.1324C22.3838 15.4761 23.0401 14.0979 23.0401 14.0979C23.0401 14.0979 18.8069 19.053 18.4787 19.1186C18.1506 19.1843 18.0194 17.9372 18.0194 17.9372C17.0349 20.3328 18.7085 20.9234 19.0366 20.1687Z" fill="#1C324F"/>
<path d="M19.3976 19.5452L21.5962 16.7559C21.5962 16.7559 22.5478 17.4122 21.9243 18.1669C21.1368 19.053 19.3976 19.5452 19.3976 19.5452Z" fill="#FFD925"/>
<path d="M25.2386 7.10822L23.7291 8.74896C22.515 9.10993 21.3336 9.76623 20.2179 10.8491C20.2179 10.2256 22.0227 7.50199 25.2386 7.10822Z" fill="#D82423"/>
<path d="M27.1418 8.51934C27.1747 8.09275 27.1418 7.60053 27.0762 7.14111C29.0451 7.40363 31.375 8.55216 34.033 11.1445C31.8343 9.93038 29.5045 8.81468 27.1418 8.51934Z" fill="#D82423"/>
<path d="M27.7325 10.6523C27.7325 10.6523 35.0503 13.8681 36.3957 22.8923C36.5925 11.1445 28.2576 10.5538 27.7325 10.6523Z" fill="#D82423"/>
<path d="M17.0677 5.46753C16.9692 5.73005 12.8346 10.1601 17.9866 11.8993C15.1644 9.37251 17.0349 5.50035 17.0677 5.46753Z" fill="#D82423"/>
<path d="M19.2662 11.2101C19.2662 11.2101 19.6928 6.18941 22.7118 4.84399C22.4821 4.90962 16.3457 6.78008 19.2662 11.2101Z" fill="#D82423"/>
</svg>

<svg width="42" height="42" viewBox="0 0 42 42" fill="none" xmlns="http://www.w3.org/2000/svg"><circle cx="21" cy="21" r="21" fill="#06061B"/><path d="M20.973 38.118c9.061 0 16.407-7.346 16.407-16.407 0-9.062-7.346-16.408-16.407-16.408-9.062 0-16.408 7.346-16.408 16.408 0 9.062 7.346 16.407 16.408 16.407z" fill="#ECF3FF"/><path d="M16.543 11.704L10.8 9.405v.82l4.922 4.43-.328 4.595-1.476 6.235-1.97 2.79.493 3.937 2.46.328 1.97-.328 1.969.328 3.445-2.133.657-3.446 4.102-3.937 1.804 1.312 1.805 2.625v5.25l2.461-.656 2.461-5.414.657-6.891-8.86-12.962-1.477-.328-9.352 5.742z" fill="#fff"/><path d="M7.847 21.186c.065-.558.098-1.116.262-1.64.46-2.167 1.346-4.234 2.658-5.907.23-.296.427-.558.69-.82l-1.477-1.38c-.263.395-.525.788-.755 1.182-1.214 2.1-1.87 4.463-2.035 6.793-.065.59-.033 1.181-.033 1.74 0 .59.066 1.148.165 1.738.164 1.149.459 2.265.853 3.315a16.718 16.718 0 01-.427-3.38c0-.525 0-1.083.099-1.641zm6.727-10.631c-.82-.394-1.97-.919-2.79-1.313.755-.722 2.133-1.476 3.282-1.969-.82.657-.82 2.035-.492 3.282zm-3.314 5.577a12.416 12.416 0 00-.854 3.544c-.033.296-.065.591-.033.887 0 .295 0 .59.033.885l.033.46c0 .131.033.295.066.426l.131.886.033-.886c0-.13 0-.295.033-.426l.065-.427c.033-.295.099-.59.132-.853.032-.295.13-.558.196-.82.296-1.116.788-2.133 1.379-3.085a11.41 11.41 0 011.345-1.706l-1.28-1.214a10.154 10.154 0 00-1.28 2.33zm19-5.611c-1.74-.623-2.429-.427-2.429-.427s-1.083 2.921-5.218 3.118c.033.033 3.741 2.198 7.646-2.691zm1.18 5.809c-.163 3.609-2.953 4.954-5.119 4.692-1.18-.164-2.92.394-2.92.394l-2.199 3.806-.722.263 1.247-2.297s-2.953 1.082-3.183 1.181c-.23.098-1.148 1.444-1.903 2.855-.164-.985-.787-1.674-.787-1.707 0 .165.328 3.118-.033 3.938-.361.854-1.97 1.411-1.97 1.411l2.364.886.164.066 1.772-1.674.656-2.493.82-.591s2.035-.23 1.74 1.608c-.132.886-1.116.82-2.232 1.51-.656.393-1.51 1.017-1.936 1.443l1.181.853s1.411-.23 3.413-1.804c2.035-1.641 1.017-3.413 1.017-3.413l3.315-3.97 2.165.163s3.741.952 4.956 4.496c2.428-6.793-1.477-11.289-1.805-11.617z" fill="#94A6C4"/><path d="M35.247 13.508c.59.263 1.05.656 1.477 1.017C33.77 4.285 24.189 5.434 23.992 5.5c.23-.36 1.083-.918 1.87-1.214 0 0-4.069-1.444-7.777 1.116.066-.59.787-1.477.787-1.477-5.119 2.2-5.447 4.825-4.462 6.4-.82-.395-1.641-.756-2.461-1.15-2.527-1.214-4.693-2.23-4.824-2.264-.23-.065-.328.033-.328.033s-.099.099.098.296c2.986 2.986 4.89 4.792 8.073 7.711-.525 1.181-.591 1.772-.329 2.395.361.854.329 1.28.197 1.838-.164.558-1.476 5.513-1.706 6.071-.23.59-1.969 2.56-2.002 3.216-.033.656.492 3.544 1.214 3.97.558.296 1.904.92 2.888 1.05.328.066.656.033.82-.098.657-.426.82-.492 1.247-.46l.099.034c.164.032.36.098.623.13.558.066 1.28.066 1.87-.327.854-.657 2.298-1.477 2.79-1.904a3.3 3.3 0 00.985-2.33c0-.82.557-1.476 1.18-2.133.591-.59 2.068-2.034 2.659-2.657 1.51.524 2.067 2.69 2.067 3.872 0 3.281-2.658 8.072-8.761 8.433-.23 0-.46.033-.722.033-7.941 0-14.439-7.023-14.439-15.26 0-6.497 3.904-10.896 3.937-10.929-3.15 2.986-5.02 7.156-5.02 11.816 0 9.057 7.35 16.409 16.408 16.409 9.057 0 16.407-7.352 16.407-16.409 0-2.953-.755-5.807-2.133-8.203zm-22.413-2.101l-1.378-1.181 1.805.951c1.707.886 3.118 1.674 3.38 1.87l.066.066c.164.197.328.526.032.952-.163.23-.36.164-.656-.033-.262-.164-1.673-1.28-3.248-2.625zm9.55 17.064c0 .558-.263 1.05-.591 1.41-.164.165-.82.591-1.28.887-.46.328-.951.623-1.345.919-.164.098-.427.164-.853.098l-1.018-.131c.624-.624 2.33-1.969 2.888-2.232.656-.328 1.05-.689.755-1.443-.263-.788-1.28-.755-1.28-.755s.623-.164 1.116-.099c-.624-.262-1.477-.197-1.904.099-.459.328-.59 1.673-.886 2.494-.295.853-.951 1.214-1.936 1.903-.557.361-.918.46-1.18.427-.559-.164-1.215-.46-1.675-.69-.262-.492-.59-2.034-.623-2.657.131-.329.656-.985.919-1.379.525-.722.82-1.148.952-1.542.23-.558 1.18-4.069 1.542-5.546.36.624.853 1.674.623 2.264 1.182-1.247.657-2.723.394-3.314-.23-.59-.492-1.739.033-2.855.492-1.115 2.198-4.134 2.198-4.134s.296.787.92.721c.59-.065 6.267-6.431 6.267-6.431s.886 2.953-.755 4.758c-1.64 1.805-3.019 2.002-3.019 2.002s1.838.59 3.741-.394c.492 1.772.919 3.61.919 3.84-.131.229-1.969 3.314-2.133 3.51-.066.066-.59.132-.919.132-.59.098-.952.13-1.116.23-.262.164-1.772 3.018-2.494 4.397-.656.098-1.312.328-1.837.951.262-.131 1.017-.131 1.575-.131.492.033 1.838 1.017 2.002 2.56v.13zm-3.84 1.378c.361-.394.427-1.148.493-1.378.065-.23.197-.657.492-.69.295-.032.919.165.853.657-.066.46-.558.492-.952.722-.262.164-.82.623-.886.689zm14.275.427c-.394-4.2-3.282-6.17-4.561-6.826 1.476-.164 5.283-1.312 3.183-7.12.065.262.656 3.15-1.018 4.659-1.706 1.542-4.2.886-4.495.886-.263-.033-1.51 1.181-3.216 3.511-.164-.098-.853-.36-1.706-.328.853-1.608 2.133-3.905 2.33-4.102.065-.066.623-.131.951-.164.656-.066.985-.131 1.116-.262.065-.099.525-.82.984-1.608.296.032 1.083.098 1.181.065.066-.065.952-1.64.985-1.837.033-.132-.59-2.593-.985-4.168 8.106 3.84 9.385 12.306 5.25 17.294z" fill="#1C324F"/><path d="M25.009 10.75c.919-.82.788-2.23.788-2.23l-2.757 3.05c-.033 0 .82.164 1.969-.82zM14.705 28.11l.46-1.313s-1.412 1.805-1.543 2.068c-.131.295-.066.853.394.886.46.032 1.083-.558 1.149-1.018.098-.623-.46-.623-.46-.623zm4.332-7.941c.984-.099 2.756-.886 3.51-1.51.755-.656.624-2.1-.557-2.527.394-.656 1.05-2.034 1.05-2.034s-4.233 4.955-4.561 5.02c-.328.066-.46-1.18-.46-1.18-.984 2.395.69 2.985 1.018 2.23z" fill="#1C324F"/><path d="M19.398 19.545l2.198-2.79s.952.657.328 1.412c-.787.886-2.526 1.378-2.526 1.378z" fill="#FFD925"/><path d="M25.239 7.108l-1.51 1.641c-1.214.36-2.395 1.017-3.511 2.1 0-.623 1.805-3.347 5.02-3.74zm1.903 1.412a6.57 6.57 0 00-.066-1.379c1.97.263 4.299 1.411 6.957 4.004-2.199-1.215-4.529-2.33-6.891-2.626zm.591 2.132s7.317 3.216 8.663 12.24c.197-11.747-8.138-12.338-8.663-12.24zM17.068 5.468c-.099.262-4.233 4.692.919 6.431-2.823-2.526-.952-6.399-.92-6.431zm2.198 5.742s.427-5.02 3.446-6.366c-.23.066-6.366 1.936-3.446 6.366z" fill="#D82423"/></svg>
